assets/undertale/original.svg

<svg viewBox="0 0 24 24" xmlns="http://www.w3.org/2000/svg" fill="#E71D29"><path d="m3 0v1.5h-1.5v1.5h-1.5v12h3v3h3v3h3v3h6v-3h3v-3h3v-3h3v-12h-1.5v-1.5h-1.5v-1.5h-3v1.5h-3v1.5h-1.5v3h-3v-3h-1.5v-1.5h-3v-1.5z"/></svg>

<svg xmlns="http://www.w3.org/2000/svg" fill="#e71d29" viewBox="0 0 24 24"><path d="M3 0v1.5H1.5V3H0v12h3v3h3v3h3v3h6v-3h3v-3h3v-3h3V3h-1.5V1.5H21V0h-3v1.5h-3V3h-1.5v3h-3V3H9V1.5H6V0z"/></svg>
